X: 20
T:God save the King. JWDM.19
M:3/4
L:1/4
S:J.Winder MS,Wyresdale,Lancs.,1789
R:Air
O:England
A:Lancashire
Z:vmp.Taz Tarry
K:D
dde|c>de|ffg|f>ed|edc|d3:||:aaa|a>gf|!ggg|g>fe|fg/f/e/d/|f>ga|(b/a/g/f/)
 e|dd2:|
